src/assets/svg/yt.svg

<svg width="24" height="24" viewBox="0 0 24 24"  xmlns="http://www.w3.org/2000/svg">
<rect y="0.129333" width="23.8707" height="23.8707" rx="8" />
<path fill-rule="evenodd" clip-rule="evenodd" d="M18.3256 12.149C18.1719 11.578 17.7217 11.1278 17.1508 10.9741C16.1077 10.6886 11.9353 10.6886 11.9353 10.6886C11.9353 10.6886 7.76295 10.6886 6.71986 10.9631C6.15988 11.1168 5.69872 11.578 5.54501 12.149C5.27051 13.192 5.27051 15.3551 5.27051 15.3551C5.27051 15.3551 5.27051 17.5291 5.54501 18.5612C5.69872 19.1322 6.1489 19.5824 6.71986 19.7361C7.77393 20.0216 11.9353 20.0216 11.9353 20.0216C11.9353 20.0216 16.1077 20.0216 17.1508 19.7471C17.7217 19.5933 18.1719 19.1432 18.3256 18.5722C18.6001 17.5291 18.6001 15.3661 18.6001 15.3661C18.6001 15.3661 18.6111 13.192 18.3256 12.149ZM15.6038 16.4114V16.6055C15.6038 16.8498 15.611 17.0366 15.6253 17.1588C15.6397 17.2809 15.6685 17.3744 15.7188 17.4247C15.7619 17.4821 15.8337 17.5109 15.9343 17.5109C16.0637 17.5109 16.1499 17.4606 16.2002 17.36C16.2505 17.2594 16.2721 17.0941 16.2793 16.857L17.0194 16.9001C17.0266 16.936 17.0266 16.9791 17.0266 17.0366C17.0266 17.3887 16.9332 17.6546 16.7392 17.8271C16.5451 17.9995 16.2721 18.0858 15.92 18.0858C15.496 18.0858 15.2014 17.9492 15.0289 17.6834C14.8564 17.4175 14.7702 17.0079 14.7702 16.4474V15.7791C14.7702 15.2042 14.8564 14.7874 15.0361 14.5215C15.2157 14.2556 15.5175 14.1263 15.9415 14.1263C16.2361 14.1263 16.4661 14.1838 16.6242 14.2916C16.7823 14.3994 16.8901 14.5718 16.9547 14.7946C17.0194 15.0245 17.0482 15.3407 17.0482 15.7431V16.3971H15.6038V16.4114ZM15.7116 14.8018C15.6684 14.8593 15.6397 14.9455 15.6253 15.0677C15.611 15.1898 15.6038 15.3767 15.6038 15.6282V15.9012H16.2361V15.6282C16.2361 15.3838 16.229 15.197 16.2146 15.0677C16.2002 14.9383 16.1643 14.8521 16.1212 14.8018C16.0781 14.7515 16.0062 14.7227 15.92 14.7227C15.8194 14.7155 15.7547 14.7443 15.7116 14.8018ZM11.4502 18.0426V14.2125H10.5879V17.2522C10.5592 17.324 10.5089 17.3815 10.437 17.4246C10.3652 17.4749 10.2933 17.4965 10.2214 17.4965C10.1352 17.4965 10.0705 17.4606 10.0346 17.3887C9.99868 17.3168 9.97712 17.1947 9.97712 17.0222V14.2125H9.11481V17.0725C9.11481 17.4318 9.17229 17.6905 9.29446 17.8558C9.41662 18.0211 9.60345 18.1073 9.85496 18.1073C10.2214 18.1073 10.5017 17.9276 10.6813 17.5755H10.7029L10.7748 18.0426H11.4502ZM9.37353 13.4939H8.5184V18.0354H7.67764V13.4939H6.82251V12.7969H9.37353V13.4939ZM14.0516 14.2987C14.1666 14.4065 14.2528 14.579 14.3031 14.8233C14.3534 15.0605 14.375 15.3982 14.3822 15.8365V16.4402C14.3822 17.0079 14.3103 17.4318 14.1738 17.6977C14.0372 17.9636 13.8288 18.1001 13.5342 18.1001C13.3689 18.1001 13.2252 18.057 13.0887 17.9851C12.9522 17.9061 12.8516 17.8055 12.7869 17.6762H12.7653L12.6791 18.0355H11.9677V12.6029H12.8013V14.6221H12.8084C12.8803 14.4784 12.9881 14.3562 13.1246 14.27C13.2612 14.1766 13.4121 14.1335 13.5702 14.1335C13.7714 14.1335 13.9366 14.191 14.0516 14.2987ZM13.4767 17.0366C13.4983 16.8785 13.5127 16.6629 13.5127 16.3827H13.5199V15.8797C13.5199 15.585 13.5127 15.3551 13.4911 15.1898C13.4696 15.0317 13.4408 14.9167 13.3905 14.8449C13.3474 14.7802 13.2755 14.7443 13.1893 14.7443C13.1103 14.7443 13.0312 14.7802 12.9593 14.8449C12.8875 14.9167 12.8372 15.003 12.8084 15.1036V17.2737C12.8444 17.3384 12.8947 17.3887 12.9522 17.4246C13.0096 17.4606 13.0743 17.4749 13.1462 17.4749C13.2324 17.4749 13.3043 17.439 13.3618 17.3743C13.4121 17.3097 13.4552 17.1947 13.4767 17.0366Z" fill="#616161"/>
<path d="M11.127 9.23867C10.9546 9.12369 10.8324 8.94404 10.7606 8.69253C10.6887 8.44821 10.6528 8.11766 10.6528 7.71524V7.16192C10.6528 6.75232 10.6959 6.42177 10.7749 6.17026C10.8612 5.91875 10.9905 5.7391 11.163 5.62412C11.3426 5.50915 11.5726 5.45166 11.86 5.45166C12.1403 5.45166 12.3702 5.50915 12.5427 5.62412C12.7151 5.7391 12.8373 5.92593 12.9164 6.17026C12.9954 6.41458 13.0385 6.74513 13.0385 7.16192V7.71524C13.0385 8.12484 13.0026 8.44821 12.9235 8.69972C12.8445 8.94404 12.7223 9.13088 12.5499 9.24585C12.3774 9.36083 12.1403 9.41832 11.8456 9.41832C11.5438 9.41113 11.2995 9.35364 11.127 9.23867ZM12.0972 8.63505C12.1475 8.51288 12.169 8.30449 12.169 8.02424V6.83137C12.169 6.5583 12.1475 6.35709 12.0972 6.22774C12.0468 6.0984 11.9678 6.04091 11.8456 6.04091C11.7307 6.04091 11.6444 6.10558 11.6013 6.22774C11.551 6.35709 11.5295 6.5583 11.5295 6.83137V8.02424C11.5295 8.30449 11.551 8.51288 11.6013 8.63505C11.6444 8.75721 11.7307 8.82188 11.8528 8.82188C11.9678 8.82188 12.0468 8.76439 12.0972 8.63505Z" fill="#616161"/>
<path d="M9.02862 7.65059L8.05133 4.10791H8.90646L9.25139 5.71038C9.33762 6.10561 9.40229 6.44335 9.44541 6.7236H9.46697C9.49571 6.5224 9.56038 6.19184 9.66099 5.71757L10.0203 4.10791H10.8754L9.88375 7.65059V9.34648H9.03581V7.65059H9.02862Z" fill="#616161"/>
<path d="M15.8195 5.52353V9.35365H15.144L15.0721 8.88656H15.0506C14.8709 9.23868 14.5907 9.41832 14.2242 9.41832C13.9727 9.41832 13.7859 9.33209 13.6637 9.16682C13.5415 9.00154 13.484 8.74284 13.484 8.38355V5.52353H14.3464V8.33324C14.3464 8.50571 14.3679 8.62787 14.4038 8.69973C14.4398 8.77159 14.5044 8.80752 14.5907 8.80752C14.6625 8.80752 14.7344 8.78596 14.8063 8.73566C14.8781 8.69254 14.9284 8.63505 14.9572 8.56319V5.52353H15.8195Z" fill="#616161"/>
</svg>

<svg width="24" height="24" xmlns="http://www.w3.org/2000/svg"><rect y=".129" width="23.871" height="23.871" rx="8"/><path fill-rule="evenodd" clip-rule="evenodd" d="M18.326 12.149a1.67 1.67 0 00-1.175-1.175c-1.043-.285-5.216-.285-5.216-.285s-4.172 0-5.215.274a1.704 1.704 0 00-1.175 1.186c-.274 1.043-.274 3.206-.274 3.206s0 2.174.274 3.206a1.67 1.67 0 001.175 1.175c1.054.286 5.215.286 5.215.286s4.173 0 5.216-.275a1.67 1.67 0 001.175-1.175c.274-1.043.274-3.206.274-3.206s.011-2.174-.274-3.217zm-2.722 4.262v.194c0 .245.007.432.021.554.015.122.043.215.094.266.043.057.115.086.215.086.13 0 .216-.05.266-.151.05-.1.072-.266.08-.503l.74.043c.007.036.007.08.007.137 0 .352-.094.618-.288.79-.194.172-.467.259-.819.259-.424 0-.719-.137-.891-.403-.173-.265-.259-.675-.259-1.236v-.668c0-.575.086-.992.266-1.258.18-.265.482-.395.905-.395.295 0 .525.058.683.166.158.107.266.28.33.503.065.23.094.546.094.948v.654h-1.444v.014zm.108-1.61a.548.548 0 00-.087.267 5.29 5.29 0 00-.021.56v.273h.632v-.273c0-.244-.007-.431-.021-.56a.492.492 0 00-.094-.266.26.26 0 00-.201-.08c-.1-.006-.165.022-.208.08zm-4.262 3.242v-3.83h-.862v3.04a.35.35 0 01-.151.172.369.369 0 01-.216.072c-.086 0-.15-.036-.186-.108-.036-.072-.058-.194-.058-.367v-2.81h-.862v2.86c0 .36.057.619.18.784.122.165.308.251.56.251.366 0 .647-.18.826-.531h.022l.072.467h.675zm-2.076-4.55h-.856v4.542h-.84v-4.541h-.855v-.697h2.55v.697zm4.678.806c.115.107.2.28.251.524.05.237.072.575.08 1.013v.604c0 .568-.073.992-.21 1.258-.136.266-.344.402-.639.402a.933.933 0 01-.445-.115.734.734 0 01-.302-.309h-.022l-.086.36h-.711v-5.433h.833v2.02h.007a.88.88 0 01.317-.353.775.775 0 01.445-.136c.201 0 .367.057.482.165zm-.575 2.738c.021-.159.036-.374.036-.654h.007v-.503c0-.295-.007-.525-.029-.69-.021-.158-.05-.273-.1-.345a.233.233 0 00-.202-.1.349.349 0 00-.23.1.588.588 0 00-.15.259v2.17a.415.415 0 00.143.15c.058.037.122.05.194.05a.28.28 0 00.216-.1.73.73 0 00.115-.337z" fill="#616161"/><path d="M11.127 9.239c-.172-.115-.295-.295-.366-.546-.072-.245-.108-.575-.108-.978v-.553c0-.41.043-.74.122-.992.086-.251.216-.43.388-.546.18-.115.41-.172.697-.172.28 0 .51.057.683.172.172.115.294.302.373.546.08.245.123.575.123.992v.553c0 .41-.036.733-.115.985-.08.244-.202.43-.374.546-.173.115-.41.172-.704.172-.302-.007-.546-.064-.719-.18zm.97-.604c.05-.122.072-.33.072-.61V6.83c0-.273-.021-.474-.072-.603-.05-.13-.13-.187-.251-.187-.115 0-.202.065-.245.187-.05.13-.072.33-.072.603v1.193c0 .28.022.489.072.611.043.122.13.187.252.187.115 0 .194-.058.244-.187zM9.029 7.65L8.05 4.109h.855l.345 1.602c.087.396.151.733.194 1.014h.022c.029-.202.093-.532.194-1.006l.36-1.61h.854L9.884 7.65v1.695h-.848V7.651h-.007zM15.82 5.524v3.83h-.676l-.072-.467h-.021c-.18.352-.46.531-.827.531-.251 0-.438-.086-.56-.251-.123-.165-.18-.424-.18-.783v-2.86h.862v2.81c0 .172.022.294.058.366.036.072.1.108.187.108a.369.369 0 00.215-.072.35.35 0 00.151-.173v-3.04h.862z" fill="#616161"/></svg>
